P3
32 32
255
225 215 185 225 215 185 225 215 185 225 215 185 225 215 185 225 215 185 225 215 185 225 215 185 45 75 125 45 75 125 45 75 125 45 75 125 45 75 125 45 75 125 45 75 125 45 75 125 225 215 185 225 215 185 225 215 185 225 215 185 225 215 185 225 215 185 225 215 185 225 215 185 45 75 125 45 75 125 45 75 125 45 75 125 45 75 125 45 75 125 45 75 125 45 75 125
225 215 185 225 215 185 225 215 185 225 215 185 225 215 185 225 215 185 225 215 185 225 215 185 45 75 125 45 75 125 45 75 125 45 75 125 45 75 125 45 75 125 45 75 125 45 75 125 225 215 185 225 215 185 225 215 185 225 215 185 225 215 185 225 215 185 225 215 185 225 215 185 45 75 125 45 75 125 45 75 125 45 75 125 45 75 125 45 75 125 45 75 125 45 75 125
225 215 185 225 215 185 225 215 185 225 215 185 225 215 185 225 215 185 225 215 185 225 215 185 45 75 125 45 75 125 45 75 125 45 75 125 45 75 125 45 75 125 45 75 125 45 75 125 225 215 185 225 215 185 225 215 185 225 215 185 225 215 185 225 215 185 225 215 185 225 215 185 45 75 125 45 75 125 45 75 125 45 75 125 45 75 125 45 75 125 45 75 125 45 75 125
225 215 185 225 215 185 225 215 185 225 215 185 225 215 185 225 215 185 225 215 185 225 215 185 45 75 125 45 75 125 45 75 125 45 75 125 45 75 125 45 75 125 45 75 125 45 75 125 225 215 185 225 215 185 225 215 185 225 215 185 225 215 185 225 215 185 225 215 185 225 215 185 45 75 125 45 75 125 45 75 125 45 75 125 45 75 125 45 75 125 45 75 125 45 75 125
225 215 185 225 215 185 225 215 185 225 215 185 225 215 185 225 215 185 225 215 185 225 215 185 45 75 125 45 75 125 45 75 125 45 75 125 45 75 125 45 75 125 45 75 125 45 75 125 225 215 185 225 215 185 225 215 185 225 215 185 225 215 185 225 215 185 225 215 185 225 215 185 45 75 125 45 75 125 45 75 125 45 75 125 45 75 125 45 75 125 45 75 125 45 75 125
225 215 185 225 215 185 225 215 185 225 215 185 225 215 185 225 215 185 225 215 185 225 215 185 45 75 125 45 75 125 45 75 125 45 75 125 45 75 125 45 75 125 45 75 125 45 75 125 225 215 185 225 215 185 225 215 185 225 215 185 225 215 185 225 215 185 225 215 185 225 215 185 45 75 125 45 75 125 45 75 125 45 75 125 45 75 125 45 75 125 45 75 125 45 75 125
225 215 185 225 215 185 225 215 185 225 215 185 225 215 185 225 215 185 225 215 185 225 215 185 45 75 125 45 75 125 45 75 125 45 75 125 45 75 125 45 75 125 45 75 125 45 75 125 225 215 185 225 215 185 225 215 185 225 215 185 225 215 185 225 215 185 225 215 185 225 215 185 45 75 125 45 75 125 45 75 125 45 75 125 45 75 125 45 75 125 45 75 125 45 75 125
225 215 185 225 215 185 225 215 185 225 215 185 225 215 185 225 215 185 225 215 185 225 215 185 45 75 125 45 75 125 45 75 125 45 75 125 45 75 125 45 75 125 45 75 125 45 75 125 225 215 185 225 215 185 225 215 185 225 215 185 225 215 185 225 215 185 225 215 185 225 215 185 45 75 125 45 75 125 45 75 125 45 75 125 45 75 125 45 75 125 45 75 125 45 75 125
45 75 125 45 75 125 45 75 125 45 75 125 45 75 125 45 75 125 45 75 125 45 75 125 225 215 185 225 215 185 225 215 185 225 215 185 225 215 185 225 215 185 225 215 185 225 215 185 45 75 125 45 75 125 45 75 125 45 75 125 45 75 125 45 75 125 45 75 125 45 75 125 225 215 185 225 215 185 225 215 185 225 215 185 225 215 185 225 215 185 225 215 185 225 215 185
45 75 125 45 75 125 45 75 125 45 75 125 45 75 125 45 75 125 45 75 125 45 75 125 225 215 185 225 215 185 225 215 185 225 215 185 225 215 185 225 215 185 225 215 185 225 215 185 45 75 125 45 75 125 45 75 125 45 75 125 45 75 125 45 75 125 45 75 125 45 75 125 225 215 185 225 215 185 225 215 185 225 215 185 225 215 185 225 215 185 225 215 185 225 215 185
45 75 125 45 75 125 45 75 125 45 75 125 45 75 125 45 75 125 45 75 125 45 75 125 225 215 185 225 215 185 225 215 185 225 215 185 225 215 185 225 215 185 225 215 185 225 215 185 45 75 125 45 75 125 45 75 125 45 75 125 45 75 125 45 75 125 45 75 125 45 75 125 225 215 185 225 215 185 225 215 185 225 215 185 225 215 185 225 215 185 225 215 185 225 215 185
45 75 125 45 75 125 45 75 125 45 75 125 45 75 125 45 75 125 45 75 125 45 75 125 225 215 185 225 215 185 225 215 185 225 215 185 225 215 185 225 215 185 225 215 185 225 215 185 45 75 125 45 75 125 45 75 125 45 75 125 45 75 125 45 75 125 45 75 125 45 75 125 225 215 185 225 215 185 225 215 185 225 215 185 225 215 185 225 215 185 225 215 185 225 215 185
45 75 125 45 75 125 45 75 125 45 75 125 45 75 125 45 75 125 45 75 125 45 75 125 225 215 185 225 215 185 225 215 185 225 215 185 225 215 185 225 215 185 225 215 185 225 215 185 45 75 125 45 75 125 45 75 125 45 75 125 45 75 125 45 75 125 45 75 125 45 75 125 225 215 185 225 215 185 225 215 185 225 215 185 225 215 185 225 215 185 225 215 185 225 215 185
45 75 125 45 75 125 45 75 125 45 75 125 45 75 125 45 75 125 45 75 125 45 75 125 225 215 185 225 215 185 225 215 185 225 215 185 225 215 185 225 215 185 225 215 185 225 215 185 45 75 125 45 75 125 45 75 125 45 75 125 45 75 125 45 75 125 45 75 125 45 75 125 225 215 185 225 215 185 225 215 185 225 215 185 225 215 185 225 215 185 225 215 185 225 215 185
45 75 125 45 75 125 45 75 125 45 75 125 45 75 125 45 75 125 45 75 125 45 75 125 225 215 185 225 215 185 225 215 185 225 215 185 225 215 185 225 215 185 225 215 185 225 215 185 45 75 125 45 75 125 45 75 125 45 75 125 45 75 125 45 75 125 45 75 125 45 75 125 225 215 185 225 215 185 225 215 185 225 215 185 225 215 185 225 215 185 225 215 185 225 215 185
45 75 125 45 75 125 45 75 125 45 75 125 45 75 125 45 75 125 45 75 125 45 75 125 225 215 185 225 215 185 225 215 185 225 215 185 225 215 185 225 215 185 225 215 185 225 215 185 45 75 125 45 75 125 45 75 125 45 75 125 45 75 125 45 75 125 45 75 125 45 75 125 225 215 185 225 215 185 225 215 185 225 215 185 225 215 185 225 215 185 225 215 185 225 215 185
225 215 185 225 215 185 225 215 185 225 215 185 225 215 185 225 215 185 225 215 185 225 215 185 45 75 125 45 75 125 45 75 125 45 75 125 45 75 125 45 75 125 45 75 125 45 75 125 225 215 185 225 215 185 225 215 185 225 215 185 225 215 185 225 215 185 225 215 185 225 215 185 45 75 125 45 75 125 45 75 125 45 75 125 45 75 125 45 75 125 45 75 125 45 75 125
225 215 185 225 215 185 225 215 185 225 215 185 225 215 185 225 215 185 225 215 185 225 215 185 45 75 125 45 75 125 45 75 125 45 75 125 45 75 125 45 75 125 45 75 125 45 75 125 225 215 185 225 215 185 225 215 185 225 215 185 225 215 185 225 215 185 225 215 185 225 215 185 45 75 125 45 75 125 45 75 125 45 75 125 45 75 125 45 75 125 45 75 125 45 75 125
225 215 185 225 215 185 225 215 185 225 215 185 225 215 185 225 215 185 225 215 185 225 215 185 45 75 125 45 75 125 45 75 125 45 75 125 45 75 125 45 75 125 45 75 125 45 75 125 225 215 185 225 215 185 225 215 185 225 215 185 225 215 185 225 215 185 225 215 185 225 215 185 45 75 125 45 75 125 45 75 125 45 75 125 45 75 125 45 75 125 45 75 125 45 75 125
225 215 185 225 215 185 225 215 185 225 215 185 225 215 185 225 215 185 225 215 185 225 215 185 45 75 125 45 75 125 45 75 125 45 75 125 45 75 125 45 75 125 45 75 125 45 75 125 225 215 185 225 215 185 225 215 185 225 215 185 225 215 185 225 215 185 225 215 185 225 215 185 45 75 125 45 75 125 45 75 125 45 75 125 45 75 125 45 75 125 45 75 125 45 75 125
225 215 185 225 215 185 225 215 185 225 215 185 225 215 185 225 215 185 225 215 185 225 215 185 45 75 125 45 75 125 45 75 125 45 75 125 45 75 125 45 75 125 45 75 125 45 75 125 225 215 185 225 215 185 225 215 185 225 215 185 225 215 185 225 215 185 225 215 185 225 215 185 45 75 125 45 75 125 45 75 125 45 75 125 45 75 125 45 75 125 45 75 125 45 75 125
225 215 185 225 215 185 225 215 185 225 215 185 225 215 185 225 215 185 225 215 185 225 215 185 45 75 125 45 75 125 45 75 125 45 75 125 45 75 125 45 75 125 45 75 125 45 75 125 225 215 185 225 215 185 225 215 185 225 215 185 225 215 185 225 215 185 225 215 185 225 215 185 45 75 125 45 75 125 45 75 125 45 75 125 45 75 125 45 75 125 45 75 125 45 75 125
225 215 185 225 215 185 225 215 185 225 215 185 225 215 185 225 215 185 225 215 185 225 215 185 45 75 125 45 75 125 45 75 125 45 75 125 45 75 125 45 75 125 45 75 125 45 75 125 225 215 185 225 215 185 225 215 185 225 215 185 225 215 185 225 215 185 225 215 185 225 215 185 45 75 125 45 75 125 45 75 125 45 75 125 45 75 125 45 75 125 45 75 125 45 75 125
225 215 185 225 215 185 225 215 185 225 215 185 225 215 185 225 215 185 225 215 185 225 215 185 45 75 125 45 75 125 45 75 125 45 75 125 45 75 125 45 75 125 45 75 125 45 75 125 225 215 185 225 215 185 225 215 185 225 215 185 225 215 185 225 215 185 225 215 185 225 215 185 45 75 125 45 75 125 45 75 125 45 75 125 45 75 125 45 75 125 45 75 125 45 75 125
45 75 125 45 75 125 45 75 125 45 75 125 45 75 125 45 75 125 45 75 125 45 75 125 225 215 185 225 215 185 225 215 185 225 215 185 225 215 185 225 215 185 225 215 185 225 215 185 45 75 125 45 75 125 45 75 125 45 75 125 45 75 125 45 75 125 45 75 125 45 75 125 225 215 185 225 215 185 225 215 185 225 215 185 225 215 185 225 215 185 225 215 185 225 215 185
45 75 125 45 75 125 45 75 125 45 75 125 45 75 125 45 75 125 45 75 125 45 75 125 225 215 185 225 215 185 225 215 185 225 215 185 225 215 185 225 215 185 225 215 185 225 215 185 45 75 125 45 75 125 45 75 125 45 75 125 45 75 125 45 75 125 45 75 125 45 75 125 225 215 185 225 215 185 225 215 185 225 215 185 225 215 185 225 215 185 225 215 185 225 215 185
45 75 125 45 75 125 45 75 125 45 75 125 45 75 125 45 75 125 45 75 125 45 75 125 225 215 185 225 215 185 225 215 185 225 215 185 225 215 185 225 215 185 225 215 185 225 215 185 45 75 125 45 75 125 45 75 125 45 75 125 45 75 125 45 75 125 45 75 125 45 75 125 225 215 185 225 215 185 225 215 185 225 215 185 225 215 185 225 215 185 225 215 185 225 215 185
45 75 125 45 75 125 45 75 125 45 75 125 45 75 125 45 75 125 45 75 125 45 75 125 225 215 185 225 215 185 225 215 185 225 215 185 225 215 185 225 215 185 225 215 185 225 215 185 45 75 125 45 75 125 45 75 125 45 75 125 45 75 125 45 75 125 45 75 125 45 75 125 225 215 185 225 215 185 225 215 185 225 215 185 225 215 185 225 215 185 225 215 185 225 215 185
45 75 125 45 75 125 45 75 125 45 75 125 45 75 125 45 75 125 45 75 125 45 75 125 225 215 185 225 215 185 225 215 185 225 215 185 225 215 185 225 215 185 225 215 185 225 215 185 45 75 125 45 75 125 45 75 125 45 75 125 45 75 125 45 75 125 45 75 125 45 75 125 225 215 185 225 215 185 225 215 185 225 215 185 225 215 185 225 215 185 225 215 185 225 215 185
45 75 125 45 75 125 45 75 125 45 75 125 45 75 125 45 75 125 45 75 125 45 75 125 225 215 185 225 215 185 225 215 185 225 215 185 225 215 185 225 215 185 225 215 185 225 215 185 45 75 125 45 75 125 45 75 125 45 75 125 45 75 125 45 75 125 45 75 125 45 75 125 225 215 185 225 215 185 225 215 185 225 215 185 225 215 185 225 215 185 225 215 185 225 215 185
45 75 125 45 75 125 45 75 125 45 75 125 45 75 125 45 75 125 45 75 125 45 75 125 225 215 185 225 215 185 225 215 185 225 215 185 225 215 185 225 215 185 225 215 185 225 215 185 45 75 125 45 75 125 45 75 125 45 75 125 45 75 125 45 75 125 45 75 125 45 75 125 225 215 185 225 215 185 225 215 185 225 215 185 225 215 185 225 215 185 225 215 185 225 215 185
45 75 125 45 75 125 45 75 125 45 75 125 45 75 125 45 75 125 45 75 125 45 75 125 225 215 185 225 215 185 225 215 185 225 215 185 225 215 185 225 215 185 225 215 185 225 215 185 45 75 125 45 75 125 45 75 125 45 75 125 45 75 125 45 75 125 45 75 125 45 75 125 225 215 185 225 215 185 225 215 185 225 215 185 225 215 185 225 215 185 225 215 185 225 215 185
