P3
32 32
255
195 185 162 195 185 162 195 185 162 195 185 162 195 185 162 195 185 162 195 185 162 195 185 162 195 185 162 195 185 162 195 185 162 195 185 162 195 185 162 195 185 162 195 185 162 195 185 162 195 185 162 195 185 162 195 185 162 195 185 162 195 185 162 195 185 162 195 185 162 195 185 162 195 185 162 195 185 162 195 185 162 195 185 162 195 185 162 195 185 162 195 185 162 195 185 162
236 225 202 236 225 202 236 225 202 236 225 202 236 225 202 236 225 202 236 225 202 236 225 202 236 225 202 236 225 202 236 225 202 236 225 202 236 225 202 236 225 202 236 225 202 236 225 202 236 225 202 236 225 202 236 225 202 236 225 202 236 225 202 236 225 202 236 225 202 236 225 202 236 225 202 236 225 202 236 225 202 236 225 202 236 225 202 236 225 202 236 225 202 236 225 202
236 225 202 236 225 202 236 225 202 236 225 202 236 225 202 236 225 202 236 225 202 236 225 202 236 225 202 236 225 202 236 225 202 236 225 202 236 225 202 236 225 202 236 225 202 236 225 202 236 225 202 236 225 202 236 225 202 236 225 202 236 225 202 236 225 202 236 225 202 236 225 202 236 225 202 236 225 202 236 225 202 236 225 202 236 225 202 236 225 202 236 225 202 236 225 202
236 225 202 236 225 202 236 225 202 236 225 202 236 225 202 236 225 202 236 225 202 236 225 202 236 225 202 236 225 202 236 225 202 236 225 202 236 225 202 236 225 202 236 225 202 236 225 202 236 225 202 236 225 202 236 225 202 236 225 202 236 225 202 236 225 202 236 225 202 236 225 202 236 225 202 236 225 202 236 225 202 236 225 202 236 225 202 236 225 202 236 225 202 236 225 202
195 185 162 195 185 162 195 185 162 195 185 162 195 185 162 195 185 162 195 185 162 195 185 162 195 185 162 195 185 162 195 185 162 195 185 162 195 185 162 195 185 162 195 185 162 195 185 162 195 185 162 195 185 162 195 185 162 195 185 162 195 185 162 195 185 162 195 185 162 195 185 162 195 185 162 195 185 162 195 185 162 195 185 162 195 185 162 195 185 162 195 185 162 195 185 162
236 225 202 236 225 202 236 225 202 236 225 202 236 225 202 236 225 202 236 225 202 236 225 202 236 225 202 236 225 202 236 225 202 236 225 202 236 225 202 236 225 202 236 225 202 236 225 202 236 225 202 236 225 202 236 225 202 236 225 202 236 225 202 236 225 202 236 225 202 236 225 202 236 225 202 236 225 202 236 225 202 236 225 202 236 225 202 236 225 202 236 225 202 236 225 202
236 225 202 236 225 202 236 225 202 236 225 202 236 225 202 236 225 202 236 225 202 236 225 202 236 225 202 236 225 202 236 225 202 236 225 202 236 225 202 236 225 202 236 225 202 236 225 202 236 225 202 236 225 202 236 225 202 236 225 202 236 225 202 236 225 202 236 225 202 236 225 202 236 225 202 236 225 202 236 225 202 236 225 202 236 225 202 236 225 202 236 225 202 236 225 202
236 225 202 236 225 202 236 225 202 236 225 202 236 225 202 236 225 202 236 225 202 236 225 202 236 225 202 236 225 202 236 225 202 236 225 202 236 225 202 236 225 202 236 225 202 236 225 202 236 225 202 236 225 202 236 225 202 236 225 202 236 225 202 236 225 202 236 225 202 236 225 202 236 225 202 236 225 202 236 225 202 236 225 202 236 225 202 236 225 202 236 225 202 236 225 202
195 185 162 195 185 162 195 185 162 195 185 162 195 185 162 195 185 162 195 185 162 195 185 162 195 185 162 195 185 162 195 185 162 195 185 162 195 185 162 195 185 162 195 185 162 195 185 162 195 185 162 195 185 162 195 185 162 195 185 162 195 185 162 195 185 162 195 185 162 195 185 162 195 185 162 195 185 162 195 185 162 195 185 162 195 185 162 195 185 162 195 185 162 195 185 162
236 225 202 236 225 202 236 225 202 236 225 202 236 225 202 236 225 202 236 225 202 236 225 202 236 225 202 236 225 202 236 225 202 236 225 202 236 225 202 236 225 202 236 225 202 236 225 202 236 225 202 236 225 202 236 225 202 236 225 202 236 225 202 236 225 202 236 225 202 236 225 202 236 225 202 236 225 202 236 225 202 236 225 202 236 225 202 236 225 202 236 225 202 236 225 202
236 225 202 236 225 202 236 225 202 236 225 202 236 225 202 236 225 202 236 225 202 236 225 202 236 225 202 236 225 202 236 225 202 236 225 202 236 225 202 236 225 202 236 225 202 236 225 202 236 225 202 236 225 202 236 225 202 236 225 202 236 225 202 236 225 202 236 225 202 236 225 202 236 225 202 236 225 202 236 225 202 236 225 202 236 225 202 236 225 202 236 225 202 236 225 202
236 225 202 236 225 202 236 225 202 236 225 202 236 225 202 236 225 202 236 225 202 236 225 202 236 225 202 236 225 202 236 225 202 236 225 202 236 225 202 236 225 202 236 225 202 236 225 202 236 225 202 236 225 202 236 225 202 236 225 202 236 225 202 236 225 202 236 225 202 236 225 202 236 225 202 236 225 202 236 225 202 236 225 202 236 225 202 236 225 202 236 225 202 236 225 202
195 185 162 195 185 162 195 185 162 195 185 162 195 185 162 195 185 162 195 185 162 195 185 162 195 185 162 195 185 162 195 185 162 195 185 162 195 185 162 195 185 162 195 185 162 195 185 162 195 185 162 195 185 162 195 185 162 195 185 162 195 185 162 195 185 162 195 185 162 195 185 162 195 185 162 195 185 162 195 185 162 195 185 162 195 185 162 195 185 162 195 185 162 195 185 162
236 225 202 236 225 202 236 225 202 236 225 202 236 225 202 236 225 202 236 225 202 236 225 202 236 225 202 236 225 202 236 225 202 236 225 202 236 225 202 236 225 202 236 225 202 236 225 202 236 225 202 236 225 202 236 225 202 236 225 202 236 225 202 236 225 202 236 225 202 236 225 202 236 225 202 236 225 202 236 225 202 236 225 202 236 225 202 236 225 202 236 225 202 236 225 202
236 225 202 236 225 202 236 225 202 236 225 202 236 225 202 236 225 202 236 225 202 236 225 202 236 225 202 236 225 202 236 225 202 236 225 202 236 225 202 236 225 202 236 225 202 236 225 202 236 225 202 236 225 202 236 225 202 236 225 202 236 225 202 236 225 202 236 225 202 236 225 202 236 225 202 236 225 202 236 225 202 236 225 202 236 225 202 236 225 202 236 225 202 236 225 202
236 225 202 236 225 202 236 225 202 236 225 202 236 225 202 236 225 202 236 225 202 236 225 202 236 225 202 236 225 202 236 225 202 236 225 202 236 225 202 236 225 202 236 225 202 236 225 202 236 225 202 236 225 202 236 225 202 236 225 202 236 225 202 236 225 202 236 225 202 236 225 202 236 225 202 236 225 202 236 225 202 236 225 202 236 225 202 236 225 202 236 225 202 236 225 202
195 185 162 195 185 162 195 185 162 195 185 162 195 185 162 195 185 162 195 185 162 195 185 162 195 185 162 195 185 162 195 185 162 195 185 162 195 185 162 195 185 162 195 185 162 195 185 162 195 185 162 195 185 162 195 185 162 195 185 162 195 185 162 195 185 162 195 185 162 195 185 162 195 185 162 195 185 162 195 185 162 195 185 162 195 185 162 195 185 162 195 185 162 195 185 162
236 225 202 236 225 202 236 225 202 236 225 202 236 225 202 236 225 202 236 225 202 236 225 202 236 225 202 236 225 202 236 225 202 236 225 202 236 225 202 236 225 202 236 225 202 236 225 202 236 225 202 236 225 202 236 225 202 236 225 202 236 225 202 236 225 202 236 225 202 236 225 202 236 225 202 236 225 202 236 225 202 236 225 202 236 225 202 236 225 202 236 225 202 236 225 202
236 225 202 236 225 202 236 225 202 236 225 202 236 225 202 236 225 202 236 225 202 236 225 202 236 225 202 236 225 202 236 225 202 236 225 202 236 225 202 236 225 202 236 225 202 236 225 202 236 225 202 236 225 202 236 225 202 236 225 202 236 225 202 236 225 202 236 225 202 236 225 202 236 225 202 236 225 202 236 225 202 236 225 202 236 225 202 236 225 202 236 225 202 236 225 202
236 225 202 236 225 202 236 225 202 236 225 202 236 225 202 236 225 202 236 225 202 236 225 202 236 225 202 236 225 202 236 225 202 236 225 202 236 225 202 236 225 202 236 225 202 236 225 202 236 225 202 236 225 202 236 225 202 236 225 202 236 225 202 236 225 202 236 225 202 236 225 202 236 225 202 236 225 202 236 225 202 236 225 202 236 225 202 236 225 202 236 225 202 236 225 202
195 185 162 195 185 162 195 185 162 195 185 162 195 185 162 195 185 162 195 185 162 195 185 162 195 185 162 195 185 162 195 185 162 195 185 162 195 185 162 195 185 162 195 185 162 195 185 162 195 185 162 195 185 162 195 185 162 195 185 162 195 185 162 195 185 162 195 185 162 195 185 162 195 185 162 195 185 162 195 185 162 195 185 162 195 185 162 195 185 162 195 185 162 195 185 162
236 225 202 236 225 202 236 225 202 236 225 202 236 225 202 236 225 202 236 225 202 236 225 202 236 225 202 236 225 202 236 225 202 236 225 202 236 225 202 236 225 202 236 225 202 236 225 202 236 225 202 236 225 202 236 225 202 236 225 202 236 225 202 236 225 202 236 225 202 236 225 202 236 225 202 236 225 202 236 225 202 236 225 202 236 225 202 236 225 202 236 225 202 236 225 202
236 225 202 236 225 202 236 225 202 236 225 202 236 225 202 236 225 202 236 225 202 236 225 202 236 225 202 236 225 202 236 225 202 236 225 202 236 225 202 236 225 202 236 225 202 236 225 202 236 225 202 236 225 202 236 225 202 236 225 202 236 225 202 236 225 202 236 225 202 236 225 202 236 225 202 236 225 202 236 225 202 236 225 202 236 225 202 236 225 202 236 225 202 236 225 202
236 225 202 236 225 202 236 225 202 236 225 202 236 225 202 236 225 202 236 225 202 236 225 202 236 225 202 236 225 202 236 225 202 236 225 202 236 225 202 236 225 202 236 225 202 236 225 202 236 225 202 236 225 202 236 225 202 236 225 202 236 225 202 236 225 202 236 225 202 236 225 202 236 225 202 236 225 202 236 225 202 236 225 202 236 225 202 236 225 202 236 225 202 236 225 202
195 185 162 195 185 162 195 185 162 195 185 162 195 185 162 195 185 162 195 185 162 195 185 162 195 185 162 195 185 162 195 185 162 195 185 162 195 185 162 195 185 162 195 185 162 195 185 162 195 185 162 195 185 162 195 185 162 195 185 162 195 185 162 195 185 162 195 185 162 195 185 162 195 185 162 195 185 162 195 185 162 195 185 162 195 185 162 195 185 162 195 185 162 195 185 162
236 225 202 236 225 202 236 225 202 236 225 202 236 225 202 236 225 202 236 225 202 236 225 202 236 225 202 236 225 202 236 225 202 236 225 202 236 225 202 236 225 202 236 225 202 236 225 202 236 225 202 236 225 202 236 225 202 236 225 202 236 225 202 236 225 202 236 225 202 236 225 202 236 225 202 236 225 202 236 225 202 236 225 202 236 225 202 236 225 202 236 225 202 236 225 202
236 225 202 236 225 202 236 225 202 236 225 202 236 225 202 236 225 202 236 225 202 236 225 202 236 225 202 236 225 202 236 225 202 236 225 202 236 225 202 236 225 202 236 225 202 236 225 202 236 225 202 236 225 202 236 225 202 236 225 202 236 225 202 236 225 202 236 225 202 236 225 202 236 225 202 236 225 202 236 225 202 236 225 202 236 225 202 236 225 202 236 225 202 236 225 202
236 225 202 236 225 202 236 225 202 236 225 202 236 225 202 236 225 202 236 225 202 236 225 202 236 225 202 236 225 202 236 225 202 236 225 202 236 225 202 236 225 202 236 225 202 236 225 202 236 225 202 236 225 202 236 225 202 236 225 202 236 225 202 236 225 202 236 225 202 236 225 202 236 225 202 236 225 202 236 225 202 236 225 202 236 225 202 236 225 202 236 225 202 236 225 202
195 185 162 195 185 162 195 185 162 195 185 162 195 185 162 195 185 162 195 185 162 195 185 162 195 185 162 195 185 162 195 185 162 195 185 162 195 185 162 195 185 162 195 185 162 195 185 162 195 185 162 195 185 162 195 185 162 195 185 162 195 185 162 195 185 162 195 185 162 195 185 162 195 185 162 195 185 162 195 185 162 195 185 162 195 185 162 195 185 162 195 185 162 195 185 162
236 225 202 236 225 202 236 225 202 236 225 202 236 225 202 236 225 202 236 225 202 236 225 202 236 225 202 236 225 202 236 225 202 236 225 202 236 225 202 236 225 202 236 225 202 236 225 202 236 225 202 236 225 202 236 225 202 236 225 202 236 225 202 236 225 202 236 225 202 236 225 202 236 225 202 236 225 202 236 225 202 236 225 202 236 225 202 236 225 202 236 225 202 236 225 202
236 225 202 236 225 202 236 225 202 236 225 202 236 225 202 236 225 202 236 225 202 236 225 202 236 225 202 236 225 202 236 225 202 236 225 202 236 225 202 236 225 202 236 225 202 236 225 202 236 225 202 236 225 202 236 225 202 236 225 202 236 225 202 236 225 202 236 225 202 236 225 202 236 225 202 236 225 202 236 225 202 236 225 202 236 225 202 236 225 202 236 225 202 236 225 202
236 225 202 236 225 202 236 225 202 236 225 202 236 225 202 236 225 202 236 225 202 236 225 202 236 225 202 236 225 202 236 225 202 236 225 202 236 225 202 236 225 202 236 225 202 236 225 202 236 225 202 236 225 202 236 225 202 236 225 202 236 225 202 236 225 202 236 225 202 236 225 202 236 225 202 236 225 202 236 225 202 236 225 202 236 225 202 236 225 202 236 225 202 236 225 202
