P3
64 64
255
155 112 72 158 115 75 160 117 77 162 119 79 163 120 80 162 119 79 160 117 77 158 115 75 155 112 72 151 108 68 149 106 66 147 104 64 147 104 64 147 104 64 149 106 66 151 108 68 155 112 72 158 115 75 160 117 77 162 119 79 163 120 80 162 119 79 160 117 77 158 115 75 155 112 72 151 108 68 149 106 66 147 104 64 147 104 64 147 104 64 149 106 66 151 108 68 155 112 72 158 115 75 160 117 77 162 119 79 163 120 80 162 119 79 160 117 77 158 115 75 155 112 72 151 108 68 149 106 66 147 104 64 147 104 64 147 104 64 149 106 66 151 108 68 155 112 72 158 115 75 160 117 77 162 119 79 163 120 80 162 119 79 160 117 77 158 115 75 155 112 72 151 108 68 149 106 66 147 104 64 147 104 64 147 104 64 149 106 66 151 108 68
155 112 72 158 115 75 161 118 78 162 119 79 162 119 79 162 119 79 160 117 77 157 114 74 154 111 71 151 108 68 148 105 65 147 104 64 147 104 64 147 104 64 149 106 66 152 109 69 155 112 72 158 115 75 161 118 78 162 119 79 162 119 79 162 119 79 160 117 77 157 114 74 154 111 71 151 108 68 148 105 65 147 104 64 147 104 64 147 104 64 149 106 66 152 109 69 155 112 72 158 115 75 161 118 78 162 119 79 162 119 79 162 119 79 160 117 77 157 114 74 154 111 71 151 108 68 148 105 65 147 104 64 147 104 64 147 104 64 149 106 66 152 109 69 155 112 72 158 115 75 161 118 78 162 119 79 162 119 79 162 119 79 160 117 77 157 114 74 154 111 71 151 108 68 148 105 65 147 104 64 147 104 64 147 104 64 149 106 66 152 109 69
156 113 73 159 116 76 161 118 78 162 119 79 162 119 79 161 118 78 159 116 76 156 113 73 153 110 70 150 107 67 148 105 65 147 104 64 147 104 64 148 105 65 150 107 67 153 110 70 156 113 73 159 116 76 161 118 78 162 119 79 162 119 79 161 118 78 159 116 76 156 113 73 153 110 70 150 107 67 148 105 65 147 104 64 147 104 64 148 105 65 150 107 67 153 110 70 156 113 73 159 116 76 161 118 78 162 119 79 162 119 79 161 118 78 159 116 76 156 113 73 153 110 70 150 107 67 148 105 65 147 104 64 147 104 64 148 105 65 150 107 67 153 110 70 156 113 73 159 116 76 161 118 78 162 119 79 162 119 79 161 118 78 159 116 76 156 113 73 153 110 70 150 107 67 148 105 65 147 104 64 147 104 64 148 105 65 150 107 67 153 110 70
156 113 73 159 116 76 161 118 78 162 119 79 162 119 79 161 118 78 159 116 76 156 113 73 153 110 70 150 107 67 148 105 65 147 104 64 147 104 64 148 105 65 150 107 67 153 110 70 156 113 73 159 116 76 161 118 78 162 119 79 162 119 79 161 118 78 159 116 76 156 113 73 153 110 70 150 107 67 148 105 65 147 104 64 147 104 64 148 105 65 150 107 67 153 110 70 156 113 73 159 116 76 161 118 78 162 119 79 162 119 79 161 118 78 159 116 76 156 113 73 153 110 70 150 107 67 148 105 65 147 104 64 147 104 64 148 105 65 150 107 67 153 110 70 156 113 73 159 116 76 161 118 78 162 119 79 162 119 79 161 118 78 159 116 76 156 113 73 153 110 70 150 107 67 148 105 65 147 104 64 147 104 64 148 105 65 150 107 67 153 110 70
157 114 74 160 117 77 162 119 79 162 119 79 162 119 79 161 118 78 158 115 75 155 112 72 152 109 69 149 106 66 147 104 64 147 104 64 147 104 64 148 105 65 151 108 68 154 111 71 157 114 74 160 117 77 162 119 79 162 119 79 162 119 79 161 118 78 158 115 75 155 112 72 152 109 69 149 106 66 147 104 64 147 104 64 147 104 64 148 105 65 151 108 68 154 111 71 157 114 74 160 117 77 162 119 79 162 119 79 162 119 79 161 118 78 158 115 75 155 112 72 152 109 69 149 106 66 147 104 64 147 104 64 147 104 64 148 105 65 151 108 68 154 111 71 157 114 74 160 117 77 162 119 79 162 119 79 162 119 79 161 118 78 158 115 75 155 112 72 152 109 69 149 106 66 147 104 64 147 104 64 147 104 64 148 105 65 151 108 68 154 111 71
157 114 74 160 117 77 162 119 79 162 119 79 162 119 79 160 117 77 158 115 75 155 112 72 152 109 69 149 106 66 147 104 64 147 104 64 147 104 64 149 106 66 151 108 68 154 111 71 157 114 74 160 117 77 162 119 79 162 119 79 162 119 79 160 117 77 158 115 75 155 112 72 152 109 69 149 106 66 147 104 64 147 104 64 147 104 64 149 106 66 151 108 68 154 111 71 157 114 74 160 117 77 162 119 79 162 119 79 162 119 79 160 117 77 158 115 75 155 112 72 152 109 69 149 106 66 147 104 64 147 104 64 147 104 64 149 106 66 151 108 68 154 111 71 157 114 74 160 117 77 162 119 79 162 119 79 162 119 79 160 117 77 158 115 75 155 112 72 152 109 69 149 106 66 147 104 64 147 104 64 147 104 64 149 106 66 151 108 68 154 111 71
158 115 75 160 117 77 162 119 79 162 119 79 162 119 79 160 117 77 157 114 74 154 111 71 151 108 68 149 106 66 147 104 64 147 104 64 147 104 64 149 106 66 152 109 69 155 112 72 158 115 75 160 117 77 162 119 79 162 119 79 162 119 79 160 117 77 157 114 74 154 111 71 151 108 68 149 106 66 147 104 64 147 104 64 147 104 64 149 106 66 152 109 69 155 112 72 158 115 75 160 117 77 162 119 79 162 119 79 162 119 79 160 117 77 157 114 74 154 111 71 151 108 68 149 106 66 147 104 64 147 104 64 147 104 64 149 106 66 152 109 69 155 112 72 158 115 75 160 117 77 162 119 79 162 119 79 162 119 79 160 117 77 157 114 74 154 111 71 151 108 68 149 106 66 147 104 64 147 104 64 147 104 64 149 106 66 152 109 69 155 112 72
158 115 75 161 118 78 162 119 79 162 119 79 162 119 79 160 117 77 157 114 74 154 111 71 151 108 68 148 105 65 147 104 64 147 104 64 147 104 64 149 106 66 152 109 69 155 112 72 158 115 75 161 118 78 162 119 79 162 119 79 162 119 79 160 117 77 157 114 74 154 111 71 151 108 68 148 105 65 147 104 64 147 104 64 147 104 64 149 106 66 152 109 69 155 112 72 158 115 75 161 118 78 162 119 79 162 119 79 162 119 79 160 117 77 157 114 74 154 111 71 151 108 68 148 105 65 147 104 64 147 104 64 147 104 64 149 106 66 152 109 69 155 112 72 158 115 75 161 118 78 162 119 79 162 119 79 162 119 79 160 117 77 157 114 74 154 111 71 151 108 68 148 105 65 147 104 64 147 104 64 147 104 64 149 106 66 152 109 69 155 112 72
159 116 76 161 118 78 162 119 79 162 119 79 161 118 78 159 116 76 156 113 73 153 110 70 150 107 67 148 105 65 147 104 64 147 104 64 148 105 65 150 107 67 153 110 70 156 113 73 159 116 76 161 118 78 162 119 79 162 119 79 161 118 78 159 116 76 156 113 73 153 110 70 150 107 67 148 105 65 147 104 64 147 104 64 148 105 65 150 107 67 153 110 70 156 113 73 159 116 76 161 118 78 162 119 79 162 119 79 161 118 78 159 116 76 156 113 73 153 110 70 150 107 67 148 105 65 147 104 64 147 104 64 148 105 65 150 107 67 153 110 70 156 113 73 159 116 76 161 118 78 162 119 79 162 119 79 161 118 78 159 116 76 156 113 73 153 110 70 150 107 67 148 105 65 147 104 64 147 104 64 148 105 65 150 107 67 153 110 70 156 113 73
159 116 76 161 118 78 162 119 79 162 119 79 161 118 78 159 116 76 156 113 73 153 110 70 150 107 67 148 105 65 147 104 64 147 104 64 148 105 65 150 107 67 153 110 70 156 113 73 159 116 76 161 118 78 162 119 79 162 119 79 161 118 78 159 116 76 156 113 73 153 110 70 150 107 67 148 105 65 147 104 64 147 104 64 148 105 65 150 107 67 153 110 70 156 113 73 159 116 76 161 118 78 162 119 79 162 119 79 161 118 78 159 116 76 156 113 73 153 110 70 150 107 67 148 105 65 147 104 64 147 104 64 148 105 65 150 107 67 153 110 70 156 113 73 159 116 76 161 118 78 162 119 79 162 119 79 161 118 78 159 116 76 156 113 73 153 110 70 150 107 67 148 105 65 147 104 64 147 104 64 148 105 65 150 107 67 153 110 70 156 113 73
159 116 76 161 118 78 162 119 79 162 119 79 161 118 78 159 116 76 156 113 73 153 110 70 150 107 67 148 105 65 147 104 64 147 104 64 148 105 65 150 107 67 153 110 70 156 113 73 159 116 76 161 118 78 162 119 79 162 119 79 161 118 78 159 116 76 156 113 73 153 110 70 150 107 67 148 105 65 147 104 64 147 104 64 148 105 65 150 107 67 153 110 70 156 113 73 159 116 76 161 118 78 162 119 79 162 119 79 161 118 78 159 116 76 156 113 73 153 110 70 150 107 67 148 105 65 147 104 64 147 104 64 148 105 65 150 107 67 153 110 70 156 113 73 159 116 76 161 118 78 162 119 79 162 119 79 161 118 78 159 116 76 156 113 73 153 110 70 150 107 67 148 105 65 147 104 64 147 104 64 148 105 65 150 107 67 153 110 70 156 113 73
159 116 76 161 118 78 162 119 79 162 119 79 161 118 78 158 115 75 155 112 72 152 109 69 150 107 67 148 105 65 147 104 64 147 104 64 148 105 65 151 108 68 154 111 71 157 114 74 159 116 76 161 118 78 162 119 79 162 119 79 161 118 78 158 115 75 155 112 72 152 109 69 150 107 67 148 105 65 147 104 64 147 104 64 148 105 65 151 108 68 154 111 71 157 114 74 159 116 76 161 118 78 162 119 79 162 119 79 161 118 78 158 115 75 155 112 72 152 109 69 150 107 67 148 105 65 147 104 64 147 104 64 148 105 65 151 108 68 154 111 71 157 114 74 159 116 76 161 118 78 162 119 79 162 119 79 161 118 78 158 115 75 155 112 72 152 109 69 150 107 67 148 105 65 147 104 64 147 104 64 148 105 65 151 108 68 154 111 71 157 114 74
160 117 77 162 119 79 162 119 79 162 119 79 161 118 78 158 115 75 155 112 72 152 109 69 149 106 66 147 104 64 147 104 64 147 104 64 148 105 65 151 108 68 154 111 71 157 114 74 160 117 77 162 119 79 162 119 79 162 119 79 161 118 78 158 115 75 155 112 72 152 109 69 149 106 66 147 104 64 147 104 64 147 104 64 148 105 65 151 108 68 154 111 71 157 114 74 160 117 77 162 119 79 162 119 79 162 119 79 161 118 78 158 115 75 155 112 72 152 109 69 149 106 66 147 104 64 147 104 64 147 104 64 148 105 65 151 108 68 154 111 71 157 114 74 160 117 77 162 119 79 162 119 79 162 119 79 161 118 78 158 115 75 155 112 72 152 109 69 149 106 66 147 104 64 147 104 64 147 104 64 148 105 65 151 108 68 154 111 71 157 114 74
160 117 77 162 119 79 162 119 79 162 119 79 161 118 78 158 115 75 155 112 72 152 109 69 149 106 66 147 104 64 147 104 64 147 104 64 148 105 65 151 108 68 154 111 71 157 114 74 160 117 77 162 119 79 162 119 79 162 119 79 161 118 78 158 115 75 155 112 72 152 109 69 149 106 66 147 104 64 147 104 64 147 104 64 148 105 65 151 108 68 154 111 71 157 114 74 160 117 77 162 119 79 162 119 79 162 119 79 161 118 78 158 115 75 155 112 72 152 109 69 149 106 66 147 104 64 147 104 64 147 104 64 148 105 65 151 108 68 154 111 71 157 114 74 160 117 77 162 119 79 162 119 79 162 119 79 161 118 78 158 115 75 155 112 72 152 109 69 149 106 66 147 104 64 147 104 64 147 104 64 148 105 65 151 108 68 154 111 71 157 114 74
160 117 77 162 119 79 162 119 79 162 119 79 160 117 77 158 115 75 155 112 72 152 109 69 149 106 66 147 104 64 147 104 64 147 104 64 149 106 66 151 108 68 154 111 71 157 114 74 160 117 77 162 119 79 162 119 79 162 119 79 160 117 77 158 115 75 155 112 72 152 109 69 149 106 66 147 104 64 147 104 64 147 104 64 149 106 66 151 108 68 154 111 71 157 114 74 160 117 77 162 119 79 162 119 79 162 119 79 160 117 77 158 115 75 155 112 72 152 109 69 149 106 66 147 104 64 147 104 64 147 104 64 149 106 66 151 108 68 154 111 71 157 114 74 160 117 77 162 119 79 162 119 79 162 119 79 160 117 77 158 115 75 155 112 72 152 109 69 149 106 66 147 104 64 147 104 64 147 104 64 149 106 66 151 108 68 154 111 71 157 114 74
160 117 77 162 119 79 162 119 79 162 119 79 160 117 77 158 115 75 155 112 72 152 109 69 149 106 66 147 104 64 147 104 64 147 104 64 149 106 66 151 108 68 154 111 71 157 114 74 160 117 77 162 119 79 162 119 79 162 119 79 160 117 77 158 115 75 155 112 72 152 109 69 149 106 66 147 104 64 147 104 64 147 104 64 149 106 66 151 108 68 154 111 71 157 114 74 160 117 77 162 119 79 162 119 79 162 119 79 160 117 77 158 115 75 155 112 72 152 109 69 149 106 66 147 104 64 147 104 64 147 104 64 149 106 66 151 108 68 154 111 71 157 114 74 160 117 77 162 119 79 162 119 79 162 119 79 160 117 77 158 115 75 155 112 72 152 109 69 149 106 66 147 104 64 147 104 64 147 104 64 149 106 66 151 108 68 154 111 71 157 114 74
160 117 77 162 119 79 162 119 79 162 119 79 160 117 77 158 115 75 155 112 72 152 109 69 149 106 66 147 104 64 147 104 64 147 104 64 149 106 66 151 108 68 154 111 71 157 114 74 160 117 77 162 119 79 162 119 79 162 119 79 160 117 77 158 115 75 155 112 72 152 109 69 149 106 66 147 104 64 147 104 64 147 104 64 149 106 66 151 108 68 154 111 71 157 114 74 160 117 77 162 119 79 162 119 79 162 119 79 160 117 77 158 115 75 155 112 72 152 109 69 149 106 66 147 104 64 147 104 64 147 104 64 149 106 66 151 108 68 154 111 71 157 114 74 160 117 77 162 119 79 162 119 79 162 119 79 160 117 77 158 115 75 155 112 72 152 109 69 149 106 66 147 104 64 147 104 64 147 104 64 149 106 66 151 108 68 154 111 71 157 114 74
160 117 77 162 119 79 162 119 79 162 119 79 160 117 77 158 115 75 155 112 72 152 109 69 149 106 66 147 104 64 147 104 64 147 104 64 149 106 66 151 108 68 154 111 71 157 114 74 160 117 77 162 119 79 162 119 79 162 119 79 160 117 77 158 115 75 155 112 72 152 109 69 149 106 66 147 104 64 147 104 64 147 104 64 149 106 66 151 108 68 154 111 71 157 114 74 160 117 77 162 119 79 162 119 79 162 119 79 160 117 77 158 115 75 155 112 72 152 109 69 149 106 66 147 104 64 147 104 64 147 104 64 149 106 66 151 108 68 154 111 71 157 114 74 160 117 77 162 119 79 162 119 79 162 119 79 160 117 77 158 115 75 155 112 72 152 109 69 149 106 66 147 104 64 147 104 64 147 104 64 149 106 66 151 108 68 154 111 71 157 114 74
160 117 77 162 119 79 162 119 79 162 119 79 160 117 77 158 115 75 155 112 72 152 109 69 149 106 66 147 104 64 147 104 64 147 104 64 149 106 66 151 108 68 154 111 71 157 114 74 160 117 77 162 119 79 162 119 79 162 119 79 160 117 77 158 115 75 155 112 72 152 109 69 149 106 66 147 104 64 147 104 64 147 104 64 149 106 66 151 108 68 154 111 71 157 114 74 160 117 77 162 119 79 162 119 79 162 119 79 160 117 77 158 115 75 155 112 72 152 109 69 149 106 66 147 104 64 147 104 64 147 104 64 149 106 66 151 108 68 154 111 71 157 114 74 160 117 77 162 119 79 162 119 79 162 119 79 160 117 77 158 115 75 155 112 72 152 109 69 149 106 66 147 104 64 147 104 64 147 104 64 149 106 66 151 108 68 154 111 71 157 114 74
160 117 77 162 119 79 162 119 79 162 119 79 161 118 78 158 115 75 155 112 72 152 109 69 149 106 66 147 104 64 147 104 64 147 104 64 148 105 65 151 108 68 154 111 71 157 114 74 160 117 77 162 119 79 162 119 79 162 119 79 161 118 78 158 115 75 155 112 72 152 109 69 149 106 66 147 104 64 147 104 64 147 104 64 148 105 65 151 108 68 154 111 71 157 114 74 160 117 77 162 119 79 162 119 79 162 119 79 161 118 78 158 115 75 155 112 72 152 109 69 149 106 66 147 104 64 147 104 64 147 104 64 148 105 65 151 108 68 154 111 71 157 114 74 160 117 77 162 119 79 162 119 79 162 119 79 161 118 78 158 115 75 155 112 72 152 109 69 149 106 66 147 104 64 147 104 64 147 104 64 148 105 65 151 108 68 154 111 71 157 114 74
160 117 77 162 119 79 162 119 79 162 119 79 161 118 78 158 115 75 155 112 72 152 109 69 149 106 66 147 104 64 147 104 64 147 104 64 148 105 65 151 108 68 154 111 71 157 114 74 160 117 77 162 119 79 162 119 79 162 119 79 161 118 78 158 115 75 155 112 72 152 109 69 149 106 66 147 104 64 147 104 64 147 104 64 148 105 65 151 108 68 154 111 71 157 114 74 160 117 77 162 119 79 162 119 79 162 119 79 161 118 78 158 115 75 155 112 72 152 109 69 149 106 66 147 104 64 147 104 64 147 104 64 148 105 65 151 108 68 154 111 71 157 114 74 160 117 77 162 119 79 162 119 79 162 119 79 161 118 78 158 115 75 155 112 72 152 109 69 149 106 66 147 104 64 147 104 64 147 104 64 148 105 65 151 108 68 154 111 71 157 114 74
159 116 76 161 118 78 162 119 79 162 119 79 161 118 78 158 115 75 155 112 72 152 109 69 150 107 67 148 105 65 147 104 64 147 104 64 148 105 65 151 108 68 154 111 71 157 114 74 159 116 76 161 118 78 162 119 79 162 119 79 161 118 78 158 115 75 155 112 72 152 109 69 150 107 67 148 105 65 147 104 64 147 104 64 148 105 65 151 108 68 154 111 71 157 114 74 159 116 76 161 118 78 162 119 79 162 119 79 161 118 78 158 115 75 155 112 72 152 109 69 150 107 67 148 105 65 147 104 64 147 104 64 148 105 65 151 108 68 154 111 71 157 114 74 159 116 76 161 118 78 162 119 79 162 119 79 161 118 78 158 115 75 155 112 72 152 109 69 150 107 67 148 105 65 147 104 64 147 104 64 148 105 65 151 108 68 154 111 71 157 114 74
159 116 76 161 118 78 162 119 79 162 119 79 161 118 78 159 116 76 156 113 73 153 110 70 150 107 67 148 105 65 147 104 64 147 104 64 148 105 65 150 107 67 153 110 70 156 113 73 159 116 76 161 118 78 162 119 79 162 119 79 161 118 78 159 116 76 156 113 73 153 110 70 150 107 67 148 105 65 147 104 64 147 104 64 148 105 65 150 107 67 153 110 70 156 113 73 159 116 76 161 118 78 162 119 79 162 119 79 161 118 78 159 116 76 156 113 73 153 110 70 150 107 67 148 105 65 147 104 64 147 104 64 148 105 65 150 107 67 153 110 70 156 113 73 159 116 76 161 118 78 162 119 79 162 119 79 161 118 78 159 116 76 156 113 73 153 110 70 150 107 67 148 105 65 147 104 64 147 104 64 148 105 65 150 107 67 153 110 70 156 113 73
159 116 76 161 118 78 162 119 79 162 119 79 161 118 78 159 116 76 156 113 73 153 110 70 150 107 67 148 105 65 147 104 64 147 104 64 148 105 65 150 107 67 153 110 70 156 113 73 159 116 76 161 118 78 162 119 79 162 119 79 161 118 78 159 116 76 156 113 73 153 110 70 150 107 67 148 105 65 147 104 64 147 104 64 148 105 65 150 107 67 153 110 70 156 113 73 159 116 76 161 118 78 162 119 79 162 119 79 161 118 78 159 116 76 156 113 73 153 110 70 150 107 67 148 105 65 147 104 64 147 104 64 148 105 65 150 107 67 153 110 70 156 113 73 159 116 76 161 118 78 162 119 79 162 119 79 161 118 78 159 116 76 156 113 73 153 110 70 150 107 67 148 105 65 147 104 64 147 104 64 148 105 65 150 107 67 153 110 70 156 113 73
159 116 76 161 118 78 162 119 79 162 119 79 161 118 78 159 116 76 156 113 73 153 110 70 150 107 67 148 105 65 147 104 64 147 104 64 148 105 65 150 107 67 153 110 70 156 113 73 159 116 76 161 118 78 162 119 79 162 119 79 161 118 78 159 116 76 156 113 73 153 110 70 150 107 67 148 105 65 147 104 64 147 104 64 148 105 65 150 107 67 153 110 70 156 113 73 159 116 76 161 118 78 162 119 79 162 119 79 161 118 78 159 116 76 156 113 73 153 110 70 150 107 67 148 105 65 147 104 64 147 104 64 148 105 65 150 107 67 153 110 70 156 113 73 159 116 76 161 118 78 162 119 79 162 119 79 161 118 78 159 116 76 156 113 73 153 110 70 150 107 67 148 105 65 147 104 64 147 104 64 148 105 65 150 107 67 153 110 70 156 113 73
158 115 75 161 118 78 162 119 79 162 119 79 162 119 79 160 117 77 157 114 74 154 111 71 151 108 68 148 105 65 147 104 64 147 104 64 147 104 64 149 106 66 152 109 69 155 112 72 158 115 75 161 118 78 162 119 79 162 119 79 162 119 79 160 117 77 157 114 74 154 111 71 151 108 68 148 105 65 147 104 64 147 104 64 147 104 64 149 106 66 152 109 69 155 112 72 158 115 75 161 118 78 162 119 79 162 119 79 162 119 79 160 117 77 157 114 74 154 111 71 151 108 68 148 105 65 147 104 64 147 104 64 147 104 64 149 106 66 152 109 69 155 112 72 158 115 75 161 118 78 162 119 79 162 119 79 162 119 79 160 117 77 157 114 74 154 111 71 151 108 68 148 105 65 147 104 64 147 104 64 147 104 64 149 106 66 152 109 69 155 112 72
158 115 75 160 117 77 162 119 79 162 119 79 162 119 79 160 117 77 157 114 74 154 111 71 151 108 68 149 106 66 147 104 64 147 104 64 147 104 64 149 106 66 152 109 69 155 112 72 158 115 75 160 117 77 162 119 79 162 119 79 162 119 79 160 117 77 157 114 74 154 111 71 151 108 68 149 106 66 147 104 64 147 104 64 147 104 64 149 106 66 152 109 69 155 112 72 158 115 75 160 117 77 162 119 79 162 119 79 162 119 79 160 117 77 157 114 74 154 111 71 151 108 68 149 106 66 147 104 64 147 104 64 147 104 64 149 106 66 152 109 69 155 112 72 158 115 75 160 117 77 162 119 79 162 119 79 162 119 79 160 117 77 157 114 74 154 111 71 151 108 68 149 106 66 147 104 64 147 104 64 147 104 64 149 106 66 152 109 69 155 112 72
157 114 74 160 117 77 162 119 79 162 119 79 162 119 79 160 117 77 158 115 75 155 112 72 152 109 69 149 106 66 147 104 64 147 104 64 147 104 64 149 106 66 151 108 68 154 111 71 157 114 74 160 117 77 162 119 79 162 119 79 162 119 79 160 117 77 158 115 75 155 112 72 152 109 69 149 106 66 147 104 64 147 104 64 147 104 64 149 106 66 151 108 68 154 111 71 157 114 74 160 117 77 162 119 79 162 119 79 162 119 79 160 117 77 158 115 75 155 112 72 152 109 69 149 106 66 147 104 64 147 104 64 147 104 64 149 106 66 151 108 68 154 111 71 157 114 74 160 117 77 162 119 79 162 119 79 162 119 79 160 117 77 158 115 75 155 112 72 152 109 69 149 106 66 147 104 64 147 104 64 147 104 64 149 106 66 151 108 68 154 111 71
157 114 74 160 117 77 162 119 79 162 119 79 162 119 79 161 118 78 158 115 75 155 112 72 152 109 69 149 106 66 147 104 64 147 104 64 147 104 64 148 105 65 151 108 68 154 111 71 157 114 74 160 117 77 162 119 79 162 119 79 162 119 79 161 118 78 158 115 75 155 112 72 152 109 69 149 106 66 147 104 64 147 104 64 147 104 64 148 105 65 151 108 68 154 111 71 157 114 74 160 117 77 162 119 79 162 119 79 162 119 79 161 118 78 158 115 75 155 112 72 152 109 69 149 106 66 147 104 64 147 104 64 147 104 64 148 105 65 151 108 68 154 111 71 157 114 74 160 117 77 162 119 79 162 119 79 162 119 79 161 118 78 158 115 75 155 112 72 152 109 69 149 106 66 147 104 64 147 104 64 147 104 64 148 105 65 151 108 68 154 111 71
156 113 73 159 116 76 161 118 78 162 119 79 162 119 79 161 118 78 159 116 76 156 113 73 153 110 70 150 107 67 148 105 65 147 104 64 147 104 64 148 105 65 150 107 67 153 110 70 156 113 73 159 116 76 161 118 78 162 119 79 162 119 79 161 118 78 159 116 76 156 113 73 153 110 70 150 107 67 148 105 65 147 104 64 147 104 64 148 105 65 150 107 67 153 110 70 156 113 73 159 116 76 161 118 78 162 119 79 162 119 79 161 118 78 159 116 76 156 113 73 153 110 70 150 107 67 148 105 65 147 104 64 147 104 64 148 105 65 150 107 67 153 110 70 156 113 73 159 116 76 161 118 78 162 119 79 162 119 79 161 118 78 159 116 76 156 113 73 153 110 70 150 107 67 148 105 65 147 104 64 147 104 64 148 105 65 150 107 67 153 110 70
156 113 73 159 116 76 161 118 78 162 119 79 162 119 79 161 118 78 159 116 76 156 113 73 153 110 70 150 107 67 148 105 65 147 104 64 147 104 64 148 105 65 150 107 67 153 110 70 156 113 73 159 116 76 161 118 78 162 119 79 162 119 79 161 118 78 159 116 76 156 113 73 153 110 70 150 107 67 148 105 65 147 104 64 147 104 64 148 105 65 150 107 67 153 110 70 156 113 73 159 116 76 161 118 78 162 119 79 162 119 79 161 118 78 159 116 76 156 113 73 153 110 70 150 107 67 148 105 65 147 104 64 147 104 64 148 105 65 150 107 67 153 110 70 156 113 73 159 116 76 161 118 78 162 119 79 162 119 79 161 118 78 159 116 76 156 113 73 153 110 70 150 107 67 148 105 65 147 104 64 147 104 64 148 105 65 150 107 67 153 110 70
155 112 72 158 115 75 161 118 78 162 119 79 162 119 79 162 119 79 160 117 77 157 114 74 154 111 71 151 108 68 148 105 65 147 104 64 147 104 64 147 104 64 149 106 66 152 109 69 155 112 72 158 115 75 161 118 78 162 119 79 162 119 79 162 119 79 160 117 77 157 114 74 154 111 71 151 108 68 148 105 65 147 104 64 147 104 64 147 104 64 149 106 66 152 109 69 155 112 72 158 115 75 161 118 78 162 119 79 162 119 79 162 119 79 160 117 77 157 114 74 154 111 71 151 108 68 148 105 65 147 104 64 147 104 64 147 104 64 149 106 66 152 109 69 155 112 72 158 115 75 161 118 78 162 119 79 162 119 79 162 119 79 160 117 77 157 114 74 154 111 71 151 108 68 148 105 65 147 104 64 147 104 64 147 104 64 149 106 66 152 109 69
155 112 72 158 115 75 160 117 77 162 119 79 163 120 80 162 119 79 160 117 77 158 115 75 155 112 72 151 108 68 149 106 66 147 104 64 147 104 64 147 104 64 149 106 66 151 108 68 155 112 72 158 115 75 160 117 77 162 119 79 163 120 80 162 119 79 160 117 77 158 115 75 155 112 72 151 108 68 149 106 66 147 104 64 147 104 64 147 104 64 149 106 66 151 108 68 155 112 72 158 115 75 160 117 77 162 119 79 163 120 80 162 119 79 160 117 77 158 115 75 155 112 72 151 108 68 149 106 66 147 104 64 147 104 64 147 104 64 149 106 66 151 108 68 155 112 72 158 115 75 160 117 77 162 119 79 163 120 80 162 119 79 160 117 77 158 115 75 155 112 72 151 108 68 149 106 66 147 104 64 147 104 64 147 104 64 149 106 66 151 108 68
154 111 71 157 114 74 160 117 77 162 119 79 162 119 79 162 119 79 161 118 78 158 115 75 155 112 72 152 109 69 149 106 66 147 104 64 147 104 64 147 104 64 148 105 65 151 108 68 154 111 71 157 114 74 160 117 77 162 119 79 162 119 79 162 119 79 161 118 78 158 115 75 155 112 72 152 109 69 149 106 66 147 104 64 147 104 64 147 104 64 148 105 65 151 108 68 154 111 71 157 114 74 160 117 77 162 119 79 162 119 79 162 119 79 161 118 78 158 115 75 155 112 72 152 109 69 149 106 66 147 104 64 147 104 64 147 104 64 148 105 65 151 108 68 154 111 71 157 114 74 160 117 77 162 119 79 162 119 79 162 119 79 161 118 78 158 115 75 155 112 72 152 109 69 149 106 66 147 104 64 147 104 64 147 104 64 148 105 65 151 108 68
153 110 70 156 113 73 159 116 76 161 118 78 162 119 79 162 119 79 161 118 78 159 116 76 156 113 73 153 110 70 150 107 67 148 105 65 147 104 64 147 104 64 148 105 65 150 107 67 153 110 70 156 113 73 159 116 76 161 118 78 162 119 79 162 119 79 161 118 78 159 116 76 156 113 73 153 110 70 150 107 67 148 105 65 147 104 64 147 104 64 148 105 65 150 107 67 153 110 70 156 113 73 159 116 76 161 118 78 162 119 79 162 119 79 161 118 78 159 116 76 156 113 73 153 110 70 150 107 67 148 105 65 147 104 64 147 104 64 148 105 65 150 107 67 153 110 70 156 113 73 159 116 76 161 118 78 162 119 79 162 119 79 161 118 78 159 116 76 156 113 73 153 110 70 150 107 67 148 105 65 147 104 64 147 104 64 148 105 65 150 107 67
153 110 70 156 113 73 159 116 76 161 118 78 162 119 79 162 119 79 161 118 78 159 116 76 156 113 73 153 110 70 150 107 67 148 105 65 147 104 64 147 104 64 148 105 65 150 107 67 153 110 70 156 113 73 159 116 76 161 118 78 162 119 79 162 119 79 161 118 78 159 116 76 156 113 73 153 110 70 150 107 67 148 105 65 147 104 64 147 104 64 148 105 65 150 107 67 153 110 70 156 113 73 159 116 76 161 118 78 162 119 79 162 119 79 161 118 78 159 116 76 156 113 73 153 110 70 150 107 67 148 105 65 147 104 64 147 104 64 148 105 65 150 107 67 153 110 70 156 113 73 159 116 76 161 118 78 162 119 79 162 119 79 161 118 78 159 116 76 156 113 73 153 110 70 150 107 67 148 105 65 147 104 64 147 104 64 148 105 65 150 107 67
152 109 69 155 112 72 158 115 75 161 118 78 162 119 79 162 119 79 162 119 79 160 117 77 157 114 74 154 111 71 151 108 68 148 105 65 147 104 64 147 104 64 147 104 64 149 106 66 152 109 69 155 112 72 158 115 75 161 118 78 162 119 79 162 119 79 162 119 79 160 117 77 157 114 74 154 111 71 151 108 68 148 105 65 147 104 64 147 104 64 147 104 64 149 106 66 152 109 69 155 112 72 158 115 75 161 118 78 162 119 79 162 119 79 162 119 79 160 117 77 157 114 74 154 111 71 151 108 68 148 105 65 147 104 64 147 104 64 147 104 64 149 106 66 152 109 69 155 112 72 158 115 75 161 118 78 162 119 79 162 119 79 162 119 79 160 117 77 157 114 74 154 111 71 151 108 68 148 105 65 147 104 64 147 104 64 147 104 64 149 106 66
152 109 69 155 112 72 158 115 75 160 117 77 162 119 79 162 119 79 162 119 79 160 117 77 157 114 74 154 111 71 151 108 68 149 106 66 147 104 64 147 104 64 147 104 64 149 106 66 152 109 69 155 112 72 158 115 75 160 117 77 162 119 79 162 119 79 162 119 79 160 117 77 157 114 74 154 111 71 151 108 68 149 106 66 147 104 64 147 104 64 147 104 64 149 106 66 152 109 69 155 112 72 158 115 75 160 117 77 162 119 79 162 119 79 162 119 79 160 117 77 157 114 74 154 111 71 151 108 68 149 106 66 147 104 64 147 104 64 147 104 64 149 106 66 152 109 69 155 112 72 158 115 75 160 117 77 162 119 79 162 119 79 162 119 79 160 117 77 157 114 74 154 111 71 151 108 68 149 106 66 147 104 64 147 104 64 147 104 64 149 106 66
151 108 68 154 111 71 157 114 74 160 117 77 162 119 79 162 119 79 162 119 79 160 117 77 158 115 75 155 112 72 152 109 69 149 106 66 147 104 64 147 104 64 147 104 64 149 106 66 151 108 68 154 111 71 157 114 74 160 117 77 162 119 79 162 119 79 162 119 79 160 117 77 158 115 75 155 112 72 152 109 69 149 106 66 147 104 64 147 104 64 147 104 64 149 106 66 151 108 68 154 111 71 157 114 74 160 117 77 162 119 79 162 119 79 162 119 79 160 117 77 158 115 75 155 112 72 152 109 69 149 106 66 147 104 64 147 104 64 147 104 64 149 106 66 151 108 68 154 111 71 157 114 74 160 117 77 162 119 79 162 119 79 162 119 79 160 117 77 158 115 75 155 112 72 152 109 69 149 106 66 147 104 64 147 104 64 147 104 64 149 106 66
151 108 68 154 111 71 157 114 74 160 117 77 162 119 79 162 119 79 162 119 79 161 118 78 158 115 75 155 112 72 152 109 69 149 106 66 147 104 64 147 104 64 147 104 64 148 105 65 151 108 68 154 111 71 157 114 74 160 117 77 162 119 79 162 119 79 162 119 79 161 118 78 158 115 75 155 112 72 152 109 69 149 106 66 147 104 64 147 104 64 147 104 64 148 105 65 151 108 68 154 111 71 157 114 74 160 117 77 162 119 79 162 119 79 162 119 79 161 118 78 158 115 75 155 112 72 152 109 69 149 106 66 147 104 64 147 104 64 147 104 64 148 105 65 151 108 68 154 111 71 157 114 74 160 117 77 162 119 79 162 119 79 162 119 79 161 118 78 158 115 75 155 112 72 152 109 69 149 106 66 147 104 64 147 104 64 147 104 64 148 105 65
150 107 67 153 110 70 156 113 73 159 116 76 161 118 78 162 119 79 162 119 79 161 118 78 159 116 76 156 113 73 153 110 70 150 107 67 148 105 65 147 104 64 147 104 64 148 105 65 150 107 67 153 110 70 156 113 73 159 116 76 161 118 78 162 119 79 162 119 79 161 118 78 159 116 76 156 113 73 153 110 70 150 107 67 148 105 65 147 104 64 147 104 64 148 105 65 150 107 67 153 110 70 156 113 73 159 116 76 161 118 78 162 119 79 162 119 79 161 118 78 159 116 76 156 113 73 153 110 70 150 107 67 148 105 65 147 104 64 147 104 64 148 105 65 150 107 67 153 110 70 156 113 73 159 116 76 161 118 78 162 119 79 162 119 79 161 118 78 159 116 76 156 113 73 153 110 70 150 107 67 148 105 65 147 104 64 147 104 64 148 105 65
150 107 67 153 110 70 156 113 73 159 116 76 161 118 78 162 119 79 162 119 79 161 118 78 159 116 76 156 113 73 153 110 70 150 107 67 148 105 65 147 104 64 147 104 64 148 105 65 150 107 67 153 110 70 156 113 73 159 116 76 161 118 78 162 119 79 162 119 79 161 118 78 159 116 76 156 113 73 153 110 70 150 107 67 148 105 65 147 104 64 147 104 64 148 105 65 150 107 67 153 110 70 156 113 73 159 116 76 161 118 78 162 119 79 162 119 79 161 118 78 159 116 76 156 113 73 153 110 70 150 107 67 148 105 65 147 104 64 147 104 64 148 105 65 150 107 67 153 110 70 156 113 73 159 116 76 161 118 78 162 119 79 162 119 79 161 118 78 159 116 76 156 113 73 153 110 70 150 107 67 148 105 65 147 104 64 147 104 64 148 105 65
150 107 67 153 110 70 156 113 73 159 116 76 161 118 78 162 119 79 162 119 79 161 118 78 159 116 76 156 113 73 153 110 70 150 107 67 148 105 65 147 104 64 147 104 64 148 105 65 150 107 67 153 110 70 156 113 73 159 116 76 161 118 78 162 119 79 162 119 79 161 118 78 159 116 76 156 113 73 153 110 70 150 107 67 148 105 65 147 104 64 147 104 64 148 105 65 150 107 67 153 110 70 156 113 73 159 116 76 161 118 78 162 119 79 162 119 79 161 118 78 159 116 76 156 113 73 153 110 70 150 107 67 148 105 65 147 104 64 147 104 64 148 105 65 150 107 67 153 110 70 156 113 73 159 116 76 161 118 78 162 119 79 162 119 79 161 118 78 159 116 76 156 113 73 153 110 70 150 107 67 148 105 65 147 104 64 147 104 64 148 105 65
150 107 67 152 109 69 155 112 72 158 115 75 161 118 78 162 119 79 162 119 79 161 118 78 159 116 76 157 114 74 154 111 71 151 108 68 148 105 65 147 104 64 147 104 64 148 105 65 150 107 67 152 109 69 155 112 72 158 115 75 161 118 78 162 119 79 162 119 79 161 118 78 159 116 76 157 114 74 154 111 71 151 108 68 148 105 65 147 104 64 147 104 64 148 105 65 150 107 67 152 109 69 155 112 72 158 115 75 161 118 78 162 119 79 162 119 79 161 118 78 159 116 76 157 114 74 154 111 71 151 108 68 148 105 65 147 104 64 147 104 64 148 105 65 150 107 67 152 109 69 155 112 72 158 115 75 161 118 78 162 119 79 162 119 79 161 118 78 159 116 76 157 114 74 154 111 71 151 108 68 148 105 65 147 104 64 147 104 64 148 105 65
149 106 66 152 109 69 155 112 72 158 115 75 161 118 78 162 119 79 162 119 79 162 119 79 160 117 77 157 114 74 154 111 71 151 108 68 148 105 65 147 104 64 147 104 64 147 104 64 149 106 66 152 109 69 155 112 72 158 115 75 161 118 78 162 119 79 162 119 79 162 119 79 160 117 77 157 114 74 154 111 71 151 108 68 148 105 65 147 104 64 147 104 64 147 104 64 149 106 66 152 109 69 155 112 72 158 115 75 161 118 78 162 119 79 162 119 79 162 119 79 160 117 77 157 114 74 154 111 71 151 108 68 148 105 65 147 104 64 147 104 64 147 104 64 149 106 66 152 109 69 155 112 72 158 115 75 161 118 78 162 119 79 162 119 79 162 119 79 160 117 77 157 114 74 154 111 71 151 108 68 148 105 65 147 104 64 147 104 64 147 104 64
149 106 66 152 109 69 155 112 72 158 115 75 161 118 78 162 119 79 162 119 79 162 119 79 160 117 77 157 114 74 154 111 71 151 108 68 148 105 65 147 104 64 147 104 64 147 104 64 149 106 66 152 109 69 155 112 72 158 115 75 161 118 78 162 119 79 162 119 79 162 119 79 160 117 77 157 114 74 154 111 71 151 108 68 148 105 65 147 104 64 147 104 64 147 104 64 149 106 66 152 109 69 155 112 72 158 115 75 161 118 78 162 119 79 162 119 79 162 119 79 160 117 77 157 114 74 154 111 71 151 108 68 148 105 65 147 104 64 147 104 64 147 104 64 149 106 66 152 109 69 155 112 72 158 115 75 161 118 78 162 119 79 162 119 79 162 119 79 160 117 77 157 114 74 154 111 71 151 108 68 148 105 65 147 104 64 147 104 64 147 104 64
149 106 66 152 109 69 155 112 72 158 115 75 160 117 77 162 119 79 162 119 79 162 119 79 160 117 77 157 114 74 154 111 71 151 108 68 149 106 66 147 104 64 147 104 64 147 104 64 149 106 66 152 109 69 155 112 72 158 115 75 160 117 77 162 119 79 162 119 79 162 119 79 160 117 77 157 114 74 154 111 71 151 108 68 149 106 66 147 104 64 147 104 64 147 104 64 149 106 66 152 109 69 155 112 72 158 115 75 160 117 77 162 119 79 162 119 79 162 119 79 160 117 77 157 114 74 154 111 71 151 108 68 149 106 66 147 104 64 147 104 64 147 104 64 149 106 66 152 109 69 155 112 72 158 115 75 160 117 77 162 119 79 162 119 79 162 119 79 160 117 77 157 114 74 154 111 71 151 108 68 149 106 66 147 104 64 147 104 64 147 104 64
149 106 66 152 109 69 155 112 72 158 115 75 160 117 77 162 119 79 162 119 79 162 119 79 160 117 77 157 114 74 154 111 71 151 108 68 149 106 66 147 104 64 147 104 64 147 104 64 149 106 66 152 109 69 155 112 72 158 115 75 160 117 77 162 119 79 162 119 79 162 119 79 160 117 77 157 114 74 154 111 71 151 108 68 149 106 66 147 104 64 147 104 64 147 104 64 149 106 66 152 109 69 155 112 72 158 115 75 160 117 77 162 119 79 162 119 79 162 119 79 160 117 77 157 114 74 154 111 71 151 108 68 149 106 66 147 104 64 147 104 64 147 104 64 149 106 66 152 109 69 155 112 72 158 115 75 160 117 77 162 119 79 162 119 79 162 119 79 160 117 77 157 114 74 154 111 71 151 108 68 149 106 66 147 104 64 147 104 64 147 104 64
149 106 66 152 109 69 155 112 72 158 115 75 160 117 77 162 119 79 162 119 79 162 119 79 160 117 77 157 114 74 154 111 71 151 108 68 149 106 66 147 104 64 147 104 64 147 104 64 149 106 66 152 109 69 155 112 72 158 115 75 160 117 77 162 119 79 162 119 79 162 119 79 160 117 77 157 114 74 154 111 71 151 108 68 149 106 66 147 104 64 147 104 64 147 104 64 149 106 66 152 109 69 155 112 72 158 115 75 160 117 77 162 119 79 162 119 79 162 119 79 160 117 77 157 114 74 154 111 71 151 108 68 149 106 66 147 104 64 147 104 64 147 104 64 149 106 66 152 109 69 155 112 72 158 115 75 160 117 77 162 119 79 162 119 79 162 119 79 160 117 77 157 114 74 154 111 71 151 108 68 149 106 66 147 104 64 147 104 64 147 104 64
149 106 66 152 109 69 155 112 72 158 115 75 160 117 77 162 119 79 162 119 79 162 119 79 160 117 77 157 114 74 154 111 71 151 108 68 149 106 66 147 104 64 147 104 64 147 104 64 149 106 66 152 109 69 155 112 72 158 115 75 160 117 77 162 119 79 162 119 79 162 119 79 160 117 77 157 114 74 154 111 71 151 108 68 149 106 66 147 104 64 147 104 64 147 104 64 149 106 66 152 109 69 155 112 72 158 115 75 160 117 77 162 119 79 162 119 79 162 119 79 160 117 77 157 114 74 154 111 71 151 108 68 149 106 66 147 104 64 147 104 64 147 104 64 149 106 66 152 109 69 155 112 72 158 115 75 160 117 77 162 119 79 162 119 79 162 119 79 160 117 77 157 114 74 154 111 71 151 108 68 149 106 66 147 104 64 147 104 64 147 104 64
149 106 66 152 109 69 155 112 72 158 115 75 160 117 77 162 119 79 162 119 79 162 119 79 160 117 77 157 114 74 154 111 71 151 108 68 149 106 66 147 104 64 147 104 64 147 104 64 149 106 66 152 109 69 155 112 72 158 115 75 160 117 77 162 119 79 162 119 79 162 119 79 160 117 77 157 114 74 154 111 71 151 108 68 149 106 66 147 104 64 147 104 64 147 104 64 149 106 66 152 109 69 155 112 72 158 115 75 160 117 77 162 119 79 162 119 79 162 119 79 160 117 77 157 114 74 154 111 71 151 108 68 149 106 66 147 104 64 147 104 64 147 104 64 149 106 66 152 109 69 155 112 72 158 115 75 160 117 77 162 119 79 162 119 79 162 119 79 160 117 77 157 114 74 154 111 71 151 108 68 149 106 66 147 104 64 147 104 64 147 104 64
149 106 66 152 109 69 155 112 72 158 115 75 161 118 78 162 119 79 162 119 79 162 119 79 160 117 77 157 114 74 154 111 71 151 108 68 148 105 65 147 104 64 147 104 64 147 104 64 149 106 66 152 109 69 155 112 72 158 115 75 161 118 78 162 119 79 162 119 79 162 119 79 160 117 77 157 114 74 154 111 71 151 108 68 148 105 65 147 104 64 147 104 64 147 104 64 149 106 66 152 109 69 155 112 72 158 115 75 161 118 78 162 119 79 162 119 79 162 119 79 160 117 77 157 114 74 154 111 71 151 108 68 148 105 65 147 104 64 147 104 64 147 104 64 149 106 66 152 109 69 155 112 72 158 115 75 161 118 78 162 119 79 162 119 79 162 119 79 160 117 77 157 114 74 154 111 71 151 108 68 148 105 65 147 104 64 147 104 64 147 104 64
149 106 66 152 109 69 155 112 72 158 115 75 161 118 78 162 119 79 162 119 79 162 119 79 160 117 77 157 114 74 154 111 71 151 108 68 148 105 65 147 104 64 147 104 64 147 104 64 149 106 66 152 109 69 155 112 72 158 115 75 161 118 78 162 119 79 162 119 79 162 119 79 160 117 77 157 114 74 154 111 71 151 108 68 148 105 65 147 104 64 147 104 64 147 104 64 149 106 66 152 109 69 155 112 72 158 115 75 161 118 78 162 119 79 162 119 79 162 119 79 160 117 77 157 114 74 154 111 71 151 108 68 148 105 65 147 104 64 147 104 64 147 104 64 149 106 66 152 109 69 155 112 72 158 115 75 161 118 78 162 119 79 162 119 79 162 119 79 160 117 77 157 114 74 154 111 71 151 108 68 148 105 65 147 104 64 147 104 64 147 104 64
150 107 67 152 109 69 155 112 72 158 115 75 161 118 78 162 119 79 162 119 79 161 118 78 159 116 76 157 114 74 154 111 71 151 108 68 148 105 65 147 104 64 147 104 64 148 105 65 150 107 67 152 109 69 155 112 72 158 115 75 161 118 78 162 119 79 162 119 79 161 118 78 159 116 76 157 114 74 154 111 71 151 108 68 148 105 65 147 104 64 147 104 64 148 105 65 150 107 67 152 109 69 155 112 72 158 115 75 161 118 78 162 119 79 162 119 79 161 118 78 159 116 76 157 114 74 154 111 71 151 108 68 148 105 65 147 104 64 147 104 64 148 105 65 150 107 67 152 109 69 155 112 72 158 115 75 161 118 78 162 119 79 162 119 79 161 118 78 159 116 76 157 114 74 154 111 71 151 108 68 148 105 65 147 104 64 147 104 64 148 105 65
150 107 67 153 110 70 156 113 73 159 116 76 161 118 78 162 119 79 162 119 79 161 118 78 159 116 76 156 113 73 153 110 70 150 107 67 148 105 65 147 104 64 147 104 64 148 105 65 150 107 67 153 110 70 156 113 73 159 116 76 161 118 78 162 119 79 162 119 79 161 118 78 159 116 76 156 113 73 153 110 70 150 107 67 148 105 65 147 104 64 147 104 64 148 105 65 150 107 67 153 110 70 156 113 73 159 116 76 161 118 78 162 119 79 162 119 79 161 118 78 159 116 76 156 113 73 153 110 70 150 107 67 148 105 65 147 104 64 147 104 64 148 105 65 150 107 67 153 110 70 156 113 73 159 116 76 161 118 78 162 119 79 162 119 79 161 118 78 159 116 76 156 113 73 153 110 70 150 107 67 148 105 65 147 104 64 147 104 64 148 105 65
150 107 67 153 110 70 156 113 73 159 116 76 161 118 78 162 119 79 162 119 79 161 118 78 159 116 76 156 113 73 153 110 70 150 107 67 148 105 65 147 104 64 147 104 64 148 105 65 150 107 67 153 110 70 156 113 73 159 116 76 161 118 78 162 119 79 162 119 79 161 118 78 159 116 76 156 113 73 153 110 70 150 107 67 148 105 65 147 104 64 147 104 64 148 105 65 150 107 67 153 110 70 156 113 73 159 116 76 161 118 78 162 119 79 162 119 79 161 118 78 159 116 76 156 113 73 153 110 70 150 107 67 148 105 65 147 104 64 147 104 64 148 105 65 150 107 67 153 110 70 156 113 73 159 116 76 161 118 78 162 119 79 162 119 79 161 118 78 159 116 76 156 113 73 153 110 70 150 107 67 148 105 65 147 104 64 147 104 64 148 105 65
150 107 67 153 110 70 156 113 73 159 116 76 161 118 78 162 119 79 162 119 79 161 118 78 159 116 76 156 113 73 153 110 70 150 107 67 148 105 65 147 104 64 147 104 64 148 105 65 150 107 67 153 110 70 156 113 73 159 116 76 161 118 78 162 119 79 162 119 79 161 118 78 159 116 76 156 113 73 153 110 70 150 107 67 148 105 65 147 104 64 147 104 64 148 105 65 150 107 67 153 110 70 156 113 73 159 116 76 161 118 78 162 119 79 162 119 79 161 118 78 159 116 76 156 113 73 153 110 70 150 107 67 148 105 65 147 104 64 147 104 64 148 105 65 150 107 67 153 110 70 156 113 73 159 116 76 161 118 78 162 119 79 162 119 79 161 118 78 159 116 76 156 113 73 153 110 70 150 107 67 148 105 65 147 104 64 147 104 64 148 105 65
151 108 68 154 111 71 157 114 74 160 117 77 162 119 79 162 119 79 162 119 79 161 118 78 158 115 75 155 112 72 152 109 69 149 106 66 147 104 64 147 104 64 147 104 64 148 105 65 151 108 68 154 111 71 157 114 74 160 117 77 162 119 79 162 119 79 162 119 79 161 118 78 158 115 75 155 112 72 152 109 69 149 106 66 147 104 64 147 104 64 147 104 64 148 105 65 151 108 68 154 111 71 157 114 74 160 117 77 162 119 79 162 119 79 162 119 79 161 118 78 158 115 75 155 112 72 152 109 69 149 106 66 147 104 64 147 104 64 147 104 64 148 105 65 151 108 68 154 111 71 157 114 74 160 117 77 162 119 79 162 119 79 162 119 79 161 118 78 158 115 75 155 112 72 152 109 69 149 106 66 147 104 64 147 104 64 147 104 64 148 105 65
151 108 68 154 111 71 157 114 74 160 117 77 162 119 79 162 119 79 162 119 79 160 117 77 158 115 75 155 112 72 152 109 69 149 106 66 147 104 64 147 104 64 147 104 64 149 106 66 151 108 68 154 111 71 157 114 74 160 117 77 162 119 79 162 119 79 162 119 79 160 117 77 158 115 75 155 112 72 152 109 69 149 106 66 147 104 64 147 104 64 147 104 64 149 106 66 151 108 68 154 111 71 157 114 74 160 117 77 162 119 79 162 119 79 162 119 79 160 117 77 158 115 75 155 112 72 152 109 69 149 106 66 147 104 64 147 104 64 147 104 64 149 106 66 151 108 68 154 111 71 157 114 74 160 117 77 162 119 79 162 119 79 162 119 79 160 117 77 158 115 75 155 112 72 152 109 69 149 106 66 147 104 64 147 104 64 147 104 64 149 106 66
152 109 69 155 112 72 158 115 75 160 117 77 162 119 79 162 119 79 162 119 79 160 117 77 157 114 74 154 111 71 151 108 68 149 106 66 147 104 64 147 104 64 147 104 64 149 106 66 152 109 69 155 112 72 158 115 75 160 117 77 162 119 79 162 119 79 162 119 79 160 117 77 157 114 74 154 111 71 151 108 68 149 106 66 147 104 64 147 104 64 147 104 64 149 106 66 152 109 69 155 112 72 158 115 75 160 117 77 162 119 79 162 119 79 162 119 79 160 117 77 157 114 74 154 111 71 151 108 68 149 106 66 147 104 64 147 104 64 147 104 64 149 106 66 152 109 69 155 112 72 158 115 75 160 117 77 162 119 79 162 119 79 162 119 79 160 117 77 157 114 74 154 111 71 151 108 68 149 106 66 147 104 64 147 104 64 147 104 64 149 106 66
152 109 69 155 112 72 158 115 75 161 118 78 162 119 79 162 119 79 162 119 79 160 117 77 157 114 74 154 111 71 151 108 68 148 105 65 147 104 64 147 104 64 147 104 64 149 106 66 152 109 69 155 112 72 158 115 75 161 118 78 162 119 79 162 119 79 162 119 79 160 117 77 157 114 74 154 111 71 151 108 68 148 105 65 147 104 64 147 104 64 147 104 64 149 106 66 152 109 69 155 112 72 158 115 75 161 118 78 162 119 79 162 119 79 162 119 79 160 117 77 157 114 74 154 111 71 151 108 68 148 105 65 147 104 64 147 104 64 147 104 64 149 106 66 152 109 69 155 112 72 158 115 75 161 118 78 162 119 79 162 119 79 162 119 79 160 117 77 157 114 74 154 111 71 151 108 68 148 105 65 147 104 64 147 104 64 147 104 64 149 106 66
153 110 70 156 113 73 159 116 76 161 118 78 162 119 79 162 119 79 161 118 78 159 116 76 156 113 73 153 110 70 150 107 67 148 105 65 147 104 64 147 104 64 148 105 65 150 107 67 153 110 70 156 113 73 159 116 76 161 118 78 162 119 79 162 119 79 161 118 78 159 116 76 156 113 73 153 110 70 150 107 67 148 105 65 147 104 64 147 104 64 148 105 65 150 107 67 153 110 70 156 113 73 159 116 76 161 118 78 162 119 79 162 119 79 161 118 78 159 116 76 156 113 73 153 110 70 150 107 67 148 105 65 147 104 64 147 104 64 148 105 65 150 107 67 153 110 70 156 113 73 159 116 76 161 118 78 162 119 79 162 119 79 161 118 78 159 116 76 156 113 73 153 110 70 150 107 67 148 105 65 147 104 64 147 104 64 148 105 65 150 107 67
153 110 70 156 113 73 159 116 76 161 118 78 162 119 79 162 119 79 161 118 78 159 116 76 156 113 73 153 110 70 150 107 67 148 105 65 147 104 64 147 104 64 148 105 65 150 107 67 153 110 70 156 113 73 159 116 76 161 118 78 162 119 79 162 119 79 161 118 78 159 116 76 156 113 73 153 110 70 150 107 67 148 105 65 147 104 64 147 104 64 148 105 65 150 107 67 153 110 70 156 113 73 159 116 76 161 118 78 162 119 79 162 119 79 161 118 78 159 116 76 156 113 73 153 110 70 150 107 67 148 105 65 147 104 64 147 104 64 148 105 65 150 107 67 153 110 70 156 113 73 159 116 76 161 118 78 162 119 79 162 119 79 161 118 78 159 116 76 156 113 73 153 110 70 150 107 67 148 105 65 147 104 64 147 104 64 148 105 65 150 107 67
154 111 71 157 114 74 160 117 77 162 119 79 162 119 79 162 119 79 161 118 78 158 115 75 155 112 72 152 109 69 149 106 66 147 104 64 147 104 64 147 104 64 148 105 65 151 108 68 154 111 71 157 114 74 160 117 77 162 119 79 162 119 79 162 119 79 161 118 78 158 115 75 155 112 72 152 109 69 149 106 66 147 104 64 147 104 64 147 104 64 148 105 65 151 108 68 154 111 71 157 114 74 160 117 77 162 119 79 162 119 79 162 119 79 161 118 78 158 115 75 155 112 72 152 109 69 149 106 66 147 104 64 147 104 64 147 104 64 148 105 65 151 108 68 154 111 71 157 114 74 160 117 77 162 119 79 162 119 79 162 119 79 161 118 78 158 115 75 155 112 72 152 109 69 149 106 66 147 104 64 147 104 64 147 104 64 148 105 65 151 108 68
